src/assets/check.svg

<svg fill="none" height="19" viewBox="0 0 24 19" width="24" xmlns="http://www.w3.org/2000/svg"><path d="m7.75033 14.8165-4.85894-4.85892c-.25662-.25981-.6066-.40604-.97178-.40604-.36519 0-.71517.14623-.971794.40604-.541424.54142-.541424 1.40212 0 1.94362l5.816844 5.8168c.54142.5414 1.41603.5414 1.95746 0l14.71568-14.70176c.5414-.54142.5414-1.40215 0-1.94357-.2567-.259813-.6066-.406044-.9718-.406044s-.7152.146231-.9718.406044z" fill="#16d2aa"/></svg>

<svg width="24" height="19" viewBox="0 0 24 19" fill="none" xmlns="http://www.w3.org/2000/svg">
<path d="M7.75033 14.8165L2.89139 9.95758C2.63477 9.69777 2.28479 9.55154 1.91961 9.55154C1.55442 9.55154 1.20444 9.69777 0.947816 9.95758C0.406392 10.499 0.406392 11.3597 0.947816 11.9012L6.76466 17.718C7.30608 18.2594 8.18069 18.2594 8.72212 17.718L23.4378 3.01624C23.9792 2.47482 23.9792 1.61409 23.4378 1.07267C23.1811 0.812857 22.8312 0.666626 22.466 0.666626C22.1008 0.666626 21.7508 0.812857 21.4942 1.07267L7.75033 14.8165Z" fill="#16D2AA"/>
</svg>
